src/IMAGE/twostars.svg

<svg width="19" height="19" viewBox="0 0 19 19" fill="none" xmlns="http://www.w3.org/2000/svg">
<path d="M8.46066 17.8243L10.0716 12.072L15.8273 10.462C16.2308 10.3494 16.2308 9.77731 15.8273 9.66477L10.0716 8.05475L8.46066 2.30244C8.34804 1.89915 7.77561 1.89915 7.663 2.30244L6.05204 8.05475L0.302641 9.66789C-0.10088 9.78044 -0.10088 10.3525 0.302641 10.4651L6.0583 12.0751L7.66925 17.8274C7.78186 18.2307 8.3543 18.2307 8.46691 17.8274L8.46066 17.8243Z" fill="#80A5F6"/>
<path d="M16.0609 5.76808L16.6536 3.65367L18.768 3.06096C18.8979 3.02434 18.8979 2.8412 18.768 2.80457L16.6536 2.21187L16.0609 0.0974531C16.0243 -0.0324087 15.8411 -0.0324087 15.8045 0.0974531L15.2118 2.21187L13.0974 2.80457C12.9675 2.8412 12.9675 3.02434 13.0974 3.06096L15.2118 3.65367L15.8045 5.76808C15.8411 5.89794 16.0243 5.89794 16.0609 5.76808Z" fill="#80A5F6"/>
</svg>

<svg xmlns="http://www.w3.org/2000/svg" fill="none" viewBox="0 0 19 19"><path fill="#80a5f6" d="m8.46 17.82 1.61-5.75 5.76-1.6c.4-.12.4-.7 0-.8l-5.76-1.62-1.6-5.75c-.12-.4-.7-.4-.8 0L6.04 8.05.3 9.67c-.4.11-.4.68 0 .8l5.76 1.6 1.6 5.76c.12.4.7.4.8 0m7.6-12.06.6-2.12 2.1-.59a.13.13 0 0 0 0-.26l-2.1-.59-.6-2.11a.13.13 0 0 0-.26 0l-.59 2.11-2.11.6a.13.13 0 0 0 0 .25l2.11.6.6 2.1c.03.14.21.14.25 0"/></svg>
